X:1
T:Title
%%score 1 { 2 | 3 }
L:1/8
Q:1/4=108
M:2/4
K:C
V:1 treble nm="Grand Piano, Soprano"
V:2 bass nm="Choir Pad, Dirge (Gibson), 77.77.77"
V:3 bass 
V:1
 E2 [EA]2 | [Ec]2 [EB]2 | [Ec]2 [Ad]2 | [^Ge]4 | [Ae]2 [Af]2 | [Ae]2 [Ad]2 | [Ac]2 [^GB]2 | [EA]4 | %8
w: By~William~H.~Gibson,~1898 *||||||||
 [Ec]2 [Ec]2 | [Fc]2 [Ad]2 | [^Ge]2 [Af]2 | [Ae]4 | [^Ge]2 [Ed]2 | [Ec]2 [FB]2 | [EA]2 [E^G]2 | %15
w: |||||||
 [EA]4 | E2 [EA]2 | [Ac]2 [^GB]2 | [Ac]2 [Ad]2 | [Ae]4 | E2 [^Ge]2 | [EA]2 [^Ge]2 | [Ac]2 [^GB]2 | %23
w: ||||||||
 [EA]4- | [EA]4 |] %25
w: ||
V:2
 C2 C2 | A,2 ^G,2 | A,2 A,2 | B,4 | C2 D2 | C2 D2 | E2 D2 | C4 | C2[K:bass] _B,2 | A,2 A,2 | %10
 B,2 D2 | C4 | B,2 B,2 | C2 D2 | C2 D2 | C4 | C2 C2 | E2 E2 | E2 F2 | C4 | C2 B,2 | C2 B,2 | %22
 E2 D2 | C4- | C4 |] %25
V:3
 A,2 A,2 | E,2 E,2 | z2 F,2 | E,4 | A,2 D,2 | A,2 F,2 | E,2 E,2 | A,,4 | A,2 G,2 | F,2 F,2 | %10
 E,2 D,2 | A,4 | E,2 ^G,2 | A,2 D,2 | E,2 E,2 | A,,4 | A,2 A,2 | E,2 E,2 | A,2 D,2 | A,4 | %20
 A,2 E,2 | A,2 E,2 | [E,,E,]2 [E,,E,]2 | A,,4- | A,,4 |] %25

